X: 36971
T: Shufflin' Samuel
R: barndance
M: 4/4
K: Fmajor
|:FG|A c2 A G2 A2|F6 c2|d f2 d f2 d2|c6 FG|
A c2 A G2 A2|F6 A2|G2 f2 e2 d2|cded cBAG|
A c2 A G2 A2|F6 c2|d f2 d f2 d2|c6 Ac
dfed c2 f2|BdcB A2 c2|EGcB A2 G2|1 F4 F2:|2 F4 F4||
K:C
|:e2 e4 ^d2|e4 c4|d2 c4 A2|G8|
G2 G4 A2|c4 e4|e2 d4 A2|d2 g2 ^f2 =f2|
e2 e4 ^d2|e4 c4|d2 c4 A2|G8|
A2 c4 e2|d2 c4 A2|A2 B4 G2|1 c2 z2 c4:|2 c6||
K:F
FG|A c2 A G2 A2|F6 c2|d f2 d f2 d2|c6 FG|
A c2 A G2 A2|F6 A2|G2 f2 e2 d2|cded cBAG|
A c2 A G2 A2|F6 c2|d f2 d f2 d2|c6 Ac
dfed c2 f2|BdcB A2 c2|EGcB A2 G2|F4 F4||
K:Bb
F2 F4 G2|B2 B4 G2|A2 A4 a2|g4 _g4|
F2 F4 G2|B2 B4 G2|A2 A4 a2|g4 _g4|
f2 f4 g2|f2 d6|c2 c4 B2|G8|
c2 c4 d2|c4 G4|B4 A4|G4 ^F4|
F2 F4 G2|B2 B4 G2|A2 A4 a2|g4 _g4|
F2 F4 G2|B2 B4 G2|A2 A4 a2|g4 _g4|
f2 f4 g2|f2 d6|c2 c4 B2|G8|
c2 c4 d2|c4 G4|B4 =B4|c4 z2||
K:F
FG|A c2 A G2 A2|F6 c2|d f2 d f2 d2|c6 FG|
A c2 A G2 A2|F6 A2|G2 f2 e2 d2|cded cBAG|
A c2 A G2 A2|F6 c2|d f2 d f2 d2|c6 Ac
dfed c2 f2|BdcB A2 c2|EGcB A2 G2|F4 F2 z2||

